static/img/kroki/b4fece7a9248d40688c3c3d5d3ce9bdf.svg

<?xml version="1.0" encoding="us-ascii" standalone="no"?><svg xmlns="http://www.w3.org/2000/svg" xmlns:xlink="http://www.w3.org/1999/xlink" contentStyleType="text/css" height="374px" preserveAspectRatio="none" style="width:526px;height:374px;" version="1.1" viewBox="0 0 526 374" width="526px" zoomAndPan="magnify"><defs/><g><!--class azure_machine_learning_featurestore_entity_version--><g id="elem_azure_machine_learning_featurestore_entity_version"><rect codeLine="23" fill="#3D176E" height="39.7891" id="azure_machine_learning_featurestore_entity_version" rx="2.5" ry="2.5" style="stroke:#000D19;stroke-width:0.5;" width="488" x="7" y="328.58"/><ellipse cx="22" cy="348.4745" fill="#ADD1B2" rx="11" ry="11" style="stroke:#181818;stroke-width:1.0;"/><path d="M24.9688,354.1152 Q24.3906,354.412 23.75,354.5527 Q23.1094,354.7089 22.4063,354.7089 Q19.9063,354.7089 18.5781,353.0683 Q17.2656,351.412 17.2656,348.287 Q17.2656,345.162 18.5781,343.5058 Q19.9063,341.8495 22.4063,341.8495 Q23.1094,341.8495 23.75,342.0058 Q24.4063,342.162 24.9688,342.4589 L24.9688,345.1777 Q24.3438,344.5995 23.75,344.3339 Q23.1563,344.0527 22.5313,344.0527 Q21.1875,344.0527 20.5,345.1308 Q19.8125,346.1933 19.8125,348.287 Q19.8125,350.3808 20.5,351.4589 Q21.1875,352.5214 22.5313,352.5214 Q23.1563,352.5214 23.75,352.2558 Q24.3438,351.9745 24.9688,351.3964 L24.9688,354.1152 Z " fill="#000000"/><text fill="#D9B8FF" font-family="Helvetica" font-size="17" lengthAdjust="spacing" textLength="446" x="41" y="354.3598">azure_machine_learning_featurestore_entity_version</text></g><!--class azure_proxy_resource--><g id="elem_azure_proxy_resource"><rect codeLine="26" fill="#3D176E" height="39.7891" id="azure_proxy_resource" rx="2.5" ry="2.5" style="stroke:#000D19;stroke-width:0.5;" width="224" x="60" y="167.79"/><ellipse cx="75" cy="187.6845" fill="#ADD1B2" rx="11" ry="11" style="stroke:#181818;stroke-width:1.0;"/><path d="M77.9688,193.3252 Q77.3906,193.622 76.75,193.7627 Q76.1094,193.9189 75.4063,193.9189 Q72.9063,193.9189 71.5781,192.2783 Q70.2656,190.622 70.2656,187.497 Q70.2656,184.372 71.5781,182.7158 Q72.9063,181.0595 75.4063,181.0595 Q76.1094,181.0595 76.75,181.2158 Q77.4063,181.372 77.9688,181.6689 L77.9688,184.3877 Q77.3438,183.8095 76.75,183.5439 Q76.1563,183.2627 75.5313,183.2627 Q74.1875,183.2627 73.5,184.3408 Q72.8125,185.4033 72.8125,187.497 Q72.8125,189.5908 73.5,190.6689 Q74.1875,191.7314 75.5313,191.7314 Q76.1563,191.7314 76.75,191.4658 Q77.3438,191.1845 77.9688,190.6064 L77.9688,193.3252 Z " fill="#000000"/><text fill="#D9B8FF" font-family="Helvetica" font-size="17" lengthAdjust="spacing" textLength="182" x="94" y="193.5698">azure_proxy_resource</text></g><!--class microsoft_resource--><g id="elem_microsoft_resource"><rect codeLine="29" fill="#3D176E" height="39.7891" id="microsoft_resource" rx="2.5" ry="2.5" style="stroke:#000D19;stroke-width:0.5;" width="200" x="319" y="167.79"/><ellipse cx="334" cy="187.6845" fill="#ADD1B2" rx="11" ry="11" style="stroke:#181818;stroke-width:1.0;"/><path d="M336.9688,193.3252 Q336.3906,193.622 335.75,193.7627 Q335.1094,193.9189 334.4063,193.9189 Q331.9063,193.9189 330.5781,192.2783 Q329.2656,190.622 329.2656,187.497 Q329.2656,184.372 330.5781,182.7158 Q331.9063,181.0595 334.4063,181.0595 Q335.1094,181.0595 335.75,181.2158 Q336.4063,181.372 336.9688,181.6689 L336.9688,184.3877 Q336.3438,183.8095 335.75,183.5439 Q335.1563,183.2627 334.5313,183.2627 Q333.1875,183.2627 332.5,184.3408 Q331.8125,185.4033 331.8125,187.497 Q331.8125,189.5908 332.5,190.6689 Q333.1875,191.7314 334.5313,191.7314 Q335.1563,191.7314 335.75,191.4658 Q336.3438,191.1845 336.9688,190.6064 L336.9688,193.3252 Z " fill="#000000"/><text fill="#D9B8FF" font-family="Helvetica" font-size="17" lengthAdjust="spacing" textLength="158" x="353" y="193.5698">microsoft_resource</text></g><!--class resource--><g id="elem_resource"><rect codeLine="32" fill="#3D176E" height="39.7891" id="resource" rx="2.5" ry="2.5" style="stroke:#000D19;stroke-width:0.5;" width="113" x="362.5" y="7"/><ellipse cx="377.5" cy="26.8945" fill="#ADD1B2" rx="11" ry="11" style="stroke:#181818;stroke-width:1.0;"/><path d="M380.4688,32.5352 Q379.8906,32.832 379.25,32.9727 Q378.6094,33.1289 377.9063,33.1289 Q375.4063,33.1289 374.0781,31.4883 Q372.7656,29.832 372.7656,26.707 Q372.7656,23.582 374.0781,21.9258 Q375.4063,20.2695 377.9063,20.2695 Q378.6094,20.2695 379.25,20.4258 Q379.9063,20.582 380.4688,20.8789 L380.4688,23.5977 Q379.8438,23.0195 379.25,22.7539 Q378.6563,22.4727 378.0313,22.4727 Q376.6875,22.4727 376,23.5508 Q375.3125,24.6133 375.3125,26.707 Q375.3125,28.8008 376,29.8789 Q376.6875,30.9414 378.0313,30.9414 Q378.6563,30.9414 379.25,30.6758 Q379.8438,30.3945 380.4688,29.8164 L380.4688,32.5352 Z " fill="#000000"/><text fill="#D9B8FF" font-family="Helvetica" font-size="17" lengthAdjust="spacing" textLength="71" x="396.5" y="32.7798">resource</text></g><!--reverse link azure_proxy_resource to azure_machine_learning_featurestore_entity_version--><g id="link_azure_proxy_resource_azure_machine_learning_featurestore_entity_version"><path codeLine="35" d="M189.546,223.9566 C204.726,254.4766 226.23,297.69 241.44,328.25 " fill="none" id="azure_proxy_resource-backto-azure_machine_learning_featurestore_entity_version" style="stroke:#FFAF37;stroke-width:2.0;"/><polygon fill="none" points="181.53,207.84,184.1738,226.6286,194.9182,221.2845,181.53,207.84" style="stroke:#FFAF37;stroke-width:2.0;"/></g><!--reverse link microsoft_resource to azure_machine_learning_featurestore_entity_version--><g id="link_microsoft_resource_azure_machine_learning_featurestore_entity_version"><path codeLine="36" d="M385.6567,220.2023 C353.3567,250.7223 303.67,297.69 271.34,328.25 " fill="none" id="microsoft_resource-backto-azure_machine_learning_featurestore_entity_version" style="stroke:#FFAF37;stroke-width:2.0;"/><polygon fill="none" points="398.74,207.84,381.5359,215.8412,389.7775,224.5634,398.74,207.84" style="stroke:#FFAF37;stroke-width:2.0;"/></g><!--reverse link resource to microsoft_resource--><g id="link_resource_microsoft_resource"><path codeLine="37" d="M419,65.05 C419,95.57 419,136.9 419,167.46 " fill="none" id="resource-backto-microsoft_resource" style="stroke:#FFAF37;stroke-width:2.0;"/><polygon fill="none" points="419,47.05,413,65.05,425,65.05,419,47.05" style="stroke:#FFAF37;stroke-width:2.0;"/></g><!--SRC=[dP91Jy9048Nl_HMRS2O1YGA95oGnUY56l3T3TnOsj3lDx1Giwd-tY9gbBP1mdVVjUsyckx8Q5MQvb2h3R87i8x-sBWU6J4sOQJkbb5XrZ04p6DR5Ht9o4PX1Xke9qmsAJQ1ElAriidRelRe9f0T8rakcmkc3lJ0uNqde9A2cANW_4M6xA0I3Cdgy61bJ9-kcdO7k3- -mWH5hv5-ar-lf_hYEN8mwk_S_CRSxLFtmQ3CIRDHiHFnGPrlkYQ1aOz4__MJ75z3QkgMw3MQlXqxia8_cynLeskvf0waFOxmW8qcPuxIn5Ov7sWnRuUTJS9JiJwTWLp366IGhwp1E4TXLwR51a4hmGfLQ_HGhPRoflhGbfpwYwEleTSxqNiOLJGKd6EgPJPWy6MbLZsUjNlUVtMxtYf9HI_BLNZM7fdNq3G00]--></g></svg>

<svg xmlns="http://www.w3.org/2000/svg" width="526" height="374" viewBox="0 0 526 374"><rect width="488" height="39.789" x="7" y="328.58" fill="#3D176E" rx="2.5" ry="2.5" style="stroke:#000d19;stroke-width:.5"/><circle cx="22" cy="348.474" r="11" fill="#ADD1B2" style="stroke:#181818;stroke-width:1"/><path d="M24.969 354.115q-.578.297-1.219.438-.64.156-1.344.156-2.5 0-3.828-1.64-1.312-1.657-1.312-4.782t1.312-4.781q1.328-1.656 3.828-1.656.703 0 1.344.156.656.156 1.219.453v2.719q-.625-.579-1.219-.844-.594-.281-1.219-.281-1.343 0-2.031 1.078-.687 1.062-.687 3.156t.687 3.172q.688 1.062 2.031 1.062.625 0 1.219-.265.594-.281 1.219-.86z"/><text x="41" y="354.36" fill="#D9B8FF" font-family="Helvetica" font-size="17" textLength="446">azure_machine_learning_featurestore_entity_version</text><rect width="224" height="39.789" x="60" y="167.79" fill="#3D176E" rx="2.5" ry="2.5" style="stroke:#000d19;stroke-width:.5"/><circle cx="75" cy="187.685" r="11" fill="#ADD1B2" style="stroke:#181818;stroke-width:1"/><path d="M77.969 193.325q-.578.297-1.219.438-.64.156-1.344.156-2.5 0-3.828-1.64-1.312-1.657-1.312-4.782t1.312-4.781q1.328-1.656 3.828-1.656.703 0 1.344.156.656.156 1.219.453v2.719q-.625-.578-1.219-.844-.594-.281-1.219-.281-1.344 0-2.031 1.078-.687 1.062-.687 3.156t.687 3.172q.688 1.062 2.031 1.062.625 0 1.219-.265.594-.281 1.219-.86z"/><text x="94" y="193.57" fill="#D9B8FF" font-family="Helvetica" font-size="17" textLength="182">azure_proxy_resource</text><rect width="200" height="39.789" x="319" y="167.79" fill="#3D176E" rx="2.5" ry="2.5" style="stroke:#000d19;stroke-width:.5"/><circle cx="334" cy="187.685" r="11" fill="#ADD1B2" style="stroke:#181818;stroke-width:1"/><path d="M336.969 193.325q-.578.297-1.219.438-.64.156-1.344.156-2.5 0-3.828-1.64-1.312-1.657-1.312-4.782t1.312-4.781q1.328-1.656 3.828-1.656.703 0 1.344.156.656.156 1.219.453v2.719q-.625-.578-1.219-.844-.594-.281-1.219-.281-1.344 0-2.031 1.078-.687 1.062-.687 3.156t.687 3.172q.688 1.062 2.031 1.062.625 0 1.219-.265.594-.281 1.219-.86z"/><text x="353" y="193.57" fill="#D9B8FF" font-family="Helvetica" font-size="17" textLength="158">microsoft_resource</text><rect width="113" height="39.789" x="362.5" y="7" fill="#3D176E" rx="2.5" ry="2.5" style="stroke:#000d19;stroke-width:.5"/><circle cx="377.5" cy="26.895" r="11" fill="#ADD1B2" style="stroke:#181818;stroke-width:1"/><path d="M380.469 32.535q-.578.297-1.219.438-.64.156-1.344.156-2.5 0-3.828-1.64-1.312-1.657-1.312-4.782t1.312-4.781q1.328-1.656 3.828-1.656.703 0 1.344.156.656.156 1.219.453v2.719q-.625-.578-1.219-.844-.594-.281-1.219-.281-1.344 0-2.031 1.078-.687 1.062-.687 3.156t.687 3.172q.688 1.062 2.031 1.062.625 0 1.219-.265.594-.281 1.219-.86z"/><text x="396.5" y="32.78" fill="#D9B8FF" font-family="Helvetica" font-size="17" textLength="71">resource</text><g fill="none"><path d="M189.546 223.957c15.18 30.52 36.684 73.733 51.894 104.293" style="stroke:#ffaf37;stroke-width:2"/><path d="m181.53 207.84 2.644 18.789 10.744-5.344z" style="stroke:#ffaf37;stroke-width:2"/></g><g fill="none"><path d="M385.657 220.202c-32.3 30.52-81.987 77.488-114.317 108.048" style="stroke:#ffaf37;stroke-width:2"/><path d="m398.74 207.84-17.204 8.001 8.241 8.722z" style="stroke:#ffaf37;stroke-width:2"/></g><path fill="none" d="M419 65.05v102.41m0-120.41-6 18h12z" style="stroke:#ffaf37;stroke-width:2"/></svg>
